X:1807
T:Bourr\'ee (slow)
R:Bourr\'ee
O:France
M:3/4
K:Dm
d4d2|d4d2|d2c2B2|A6|GAB2GA|B2ABc2\
|1 d2c2A2|B2A2^F2:|2d2A2B2|^F2G4:|\
|:^FG EFD2|B3BB2|B2A2G2|B2A4|^FG EF DF|B3BB2\
|1B2A2G2|^F6:|2 def2B2|G6:|


